X:1
T:Title
%%score { 1 | 2 }
L:1/8
M:6/8
K:Bb
V:1 treble nm="Grand Piano"
V:2 bass 
V:1
 z3 z2[Q:1/4=87] [DF] | [DF][DG][DA] [DB][DA][DG] | [EA]3 [EA]2 [FB] | cde edc | %4
 [Fd]3- [Fd]2 [DF] | [DF][DG][DA] [DB][DA][DG] | [EA]3 [EA]2 [Ec] | %7
 [Dd][Dc][B,FB] [D=EB][CEA][B,EG] |[M:5/8] [A,F]-[A,F]- [A,F]3 |[M:1/8] [A,EF] | %10
[M:3/4] [B,DF][DB] [FB]c Bc | d3 B2 c | dc d e2 d | c4- cF | [Fd][Ec] [DB][Gc] [GB][EG] | %15
 [DF]3 [B,D]2 [DF] | [FB][EB] [DB] [Fd]2 [Ec] |[M:5/8] [DB]-[DB]- [DB]3 |] %18
V:2
 z3 z2 [B,,B,] | [B,,B,][B,,B,][B,,B,] [B,,F,][B,,F,][B,,F,] | [C,F,]3 [C,F,]2 [D,B,] | %3
 [F,A,F][F,B,F][F,CF] [F,CF][F,B,F][F,A,F] | [B,,B,]3- [B,,B,]2 [B,,B,] | %5
 [B,,B,][B,,B,][B,,B,] [B,,F,][B,,F,][B,,F,] | [C,F,]3 [C,F,]2 [A,,F,] | [B,,F,][B,,B,]D, C,C,C, | %8
[M:5/8] F,-F,- F,3 |[M:1/8] F, |[M:3/4] B,,[B,,F,] [D,B,][F,A,E] [F,B,D][K:treble][F,A,F] | %11
 [B,F]3 [B,D]2 [F,A,F] | [B,F][F,A,F] [B,F] [A,CF]2 [B,F] | [F,A,F]4- [F,A,F][F,A,] | %14
 [B,,B,][C,A,] [D,B,][E,B,] [E,B,][E,B,] | [B,,B,]3 [B,,F,]2 [B,,B,] | %16
 [D,B,][C,F,] [B,,F,] [F,,F,B,]2 [F,,F,A,] |[M:5/8] [B,,F,B,]-[B,,F,B,]- [B,,F,B,]3 |] %18

